X:3202
T:Oriel Strathspey
P:Miss Susan Inglis
C:Muriel A. Johnstone
R:Strathspey (4x32)
B:RSCDS 32-2
Z:Anselm Lingnau <anselm@strathspey.org>
M:C
L:1/8
K:Bb
%
f|"Bb"b>f d<B "F"a>B "Eb"g>B|"Bb"f>d B>F "Eb"(3GAB "Bb"F>D|\
  "Cm"E>G c<e "Bb"(3DFB (3dfb|"Eb"g/f/e/d/ "Cm"e/d/c/B/ "F"A<c "F7"cf|
  "Bb"b>f d<B "F"a>B "Eb"g>B|"Bb"f>d B>F "Eb"(3GAB "Bb"F>D|\
  "Cm"E>G c<e "Bb"F>B df|"Eb"[bgeB]>g "F7"f>e "Bb"d<B B||
d|"Gm"g>d B<G g<b "C7"a>g|"F"f>c A<F f<a "D7"b>a|\
  "G"g>d B<G "F7"f>F e>F|"Bb"d>B A>G "D7"^F<A Ad|
  "G"g>d B<G "F7"f>F e>F|"Bb"d>B F>D "Eb"(3EFG "Bb"F>D|\
  "Cm"E>G c<e "Bb"F>B df|"Eb"[bgeB]>g "F7"f>e "Bb"d<B B|]
